public/assets/img/logo.svg

<svg xmlns="http://www.w3.org/2000/svg" viewBox="0 0 270 56" enable-background="new 0 0 270 56"><path fill="#2e2e2e" d="M82.9 36.8h11.2v4.2h-16.5v-25.6h5.3v21.4zm24.9 4.2c-.2-.5-.4-1-.5-1.7-1.2 1.4-2.8 2.1-4.8 2.1-1.9 0-3.4-.5-4.6-1.6-1.2-1.1-1.8-2.4-1.8-4.1 0-2 .7-3.6 2.2-4.6 1.5-1.1 3.7-1.6 6.5-1.6h2.3v-1.1c0-.9-.2-1.6-.7-2.1-.4-.5-1.2-.8-2.1-.8-.9 0-1.5.2-2 .6-.5.4-.7 1-.7 1.7h-5.1c0-1.1.3-2.1 1-3.1.7-.9 1.6-1.7 2.9-2.2 1.2-.5 2.6-.8 4.2-.8 2.3 0 4.2.6 5.6 1.8 1.4 1.2 2.1 2.8 2.1 5v8.2c0 1.8.3 3.2.8 4.1v.2h-5.3zm-4.2-3.5c.8 0 1.4-.2 2.1-.5.6-.3 1.1-.8 1.4-1.3v-3.3h-1.9c-2.5 0-3.9.9-4.1 2.6v.3c0 .6.2 1.2.7 1.6.4.4 1 .6 1.8.6zm23.2-10.8c-.7-.1-1.3-.1-1.8-.1-1.9 0-3.2.6-3.8 2v12.4h-5.1v-19h4.8l.1 2.3c1-1.7 2.4-2.6 4.2-2.6.6 0 1.1.1 1.6.2v4.8zm12.9 14.3c-.2-.5-.4-1-.5-1.7-1.2 1.4-2.8 2.1-4.8 2.1-1.9 0-3.4-.5-4.6-1.6-1.2-1.1-1.8-2.4-1.8-4.1 0-2 .7-3.6 2.2-4.6 1.5-1.1 3.7-1.6 6.5-1.6h2.3v-1.1c0-.9-.2-1.6-.7-2.1-.4-.5-1.2-.8-2.1-.8-.9 0-1.5.2-2 .6-.5.4-.7 1-.7 1.7h-5.1c0-1.1.3-2.1 1-3.1.7-.9 1.6-1.7 2.9-2.2 1.2-.5 2.6-.8 4.2-.8 2.3 0 4.2.6 5.6 1.8 1.4 1.2 2.1 2.8 2.1 5v8.2c0 1.8.3 3.2.8 4.1v.2h-5.3zm-4.2-3.5c.8 0 1.4-.2 2.1-.5.6-.3 1.1-.8 1.4-1.3v-3.3h-1.9c-2.5 0-3.9.9-4.1 2.6v.3c0 .6.2 1.2.7 1.6.4.4 1 .6 1.8.6zm19.3-2.7l3.5-12.8h5.3l-6.4 19h-4.9l-6.3-19h5.3l3.5 12.8zm19.6 6.6c-2.8 0-5.1-.9-6.8-2.6-1.8-1.7-2.6-4-2.6-6.8v-.5c0-1.9.4-3.6 1.1-5.1.7-1.5 1.8-2.7 3.1-3.5 1.4-.8 2.9-1.2 4.6-1.2 2.6 0 4.6.8 6.1 2.5 1.5 1.6 2.2 4 2.2 7v2.1h-12.1c.2 1.2.7 2.2 1.5 3 .8.8 1.9 1.1 3.1 1.1 2 0 3.5-.7 4.6-2.1l2.5 2.8c-.8 1.1-1.8 1.9-3.1 2.5-1.1.5-2.6.8-4.2.8zm-.5-15.7c-1 0-1.8.3-2.5 1s-1 1.7-1.2 2.9h7.1v-.4c0-1.1-.3-2-.9-2.6s-1.5-.9-2.5-.9zm16.6 15.3h-5.1v-27h5.1v27zM220 41h-17.1v-1.3l14.4-21.7h-13.8v-1.6h16.1v1.3l-14.5 21.8h14.9v1.5zM231.2 41.4c-2.7 0-4.7-.8-6.2-2.5-1.5-1.6-2.2-3.9-2.2-6.9 0-2.9.7-5.3 2.2-7 1.4-1.8 3.4-2.6 5.8-2.6 2.2 0 3.9.8 5.1 2.3 1.2 1.5 1.9 3.6 1.9 6.1v1.3h-13.2c0 2.5.6 4.4 1.8 5.8 1.2 1.3 2.8 2 5 2 1 0 2-.1 2.8-.2.8-.1 1.8-.5 3-.9v1.5c-1 .4-2 .8-2.9.9-1.1.1-2 .2-3.1.2zm-.5-17.6c-1.8 0-3.2.6-4.3 1.7-1.1 1.2-1.7 2.8-1.9 5h11.3c0-2.1-.5-3.8-1.4-5-.8-1.1-2-1.7-3.7-1.7zM249.3 22.3c.8 0 1.6.1 2.5.2l-.3 1.6c-.8-.2-1.6-.3-2.4-.3-1.6 0-2.8.7-3.8 2s-1.5 3-1.5 5v10.2h-1.7v-18.3h1.4l.2 3.3h.1c.8-1.3 1.6-2.3 2.4-2.8.9-.6 1.9-.9 3.1-.9zM270 31.8c0 3-.7 5.3-2.2 7-1.4 1.7-3.5 2.5-6 2.5-1.6 0-3-.4-4.3-1.2-1.2-.8-2.2-1.9-2.8-3.3-.7-1.4-1-3.1-1-5 0-3 .7-5.3 2.2-7 1.5-1.7 3.4-2.5 6-2.5 2.5 0 4.5.8 5.9 2.5 1.5 1.8 2.2 4.1 2.2 7zm-14.5 0c0 2.5.6 4.5 1.7 5.9 1.1 1.4 2.7 2.1 4.7 2.1s3.6-.7 4.7-2.1c1.1-1.4 1.7-3.4 1.7-5.9 0-2.5-.6-4.5-1.7-5.9-1.1-1.4-2.7-2.1-4.7-2.1s-3.6.7-4.7 2.1c-1.1 1.4-1.7 3.4-1.7 5.9z"/><linearGradient id="SVGID_1_" gradientUnits="userSpaceOnUse" x1="28" x2="28" y2="56"><stop offset="0" stop-color="#68bf66"/><stop offset="1" stop-color="#42b257"/></linearGradient><path fill="url(#SVGID_1_)" d="M48 13.4l8-8v-1.4c0-2.2-1.8-4-4-4h-48c-2.2 0-4 1.8-4 4v38.6l8-8v-26.6h34.6l-26.6 26.6-8 8-8 8v1.4c0 2.2 1.8 4 4 4h48c2.2 0 4-1.8 4-4v-38.6l-8 8v26.6h-34.6l19.9-19.9 14.7-14.7z"/></svg>

<svg width="270" height="56" viewBox="0 0 270 56" fill="none" xmlns="http://www.w3.org/2000/svg">
<path d="M82.9 36.8H94.1V41H77.6V15.4H82.9V36.8ZM107.8 41C107.6 40.5 107.4 40 107.3 39.3C106.1 40.7 104.5 41.4 102.5 41.4C100.6 41.4 99.1 40.9 97.9 39.8C96.7 38.7 96.1 37.4 96.1 35.7C96.1 33.7 96.8 32.1 98.3 31.1C99.8 30 102 29.5 104.8 29.5H107.1V28.4C107.1 27.5 106.9 26.8 106.4 26.3C106 25.8 105.2 25.5 104.3 25.5C103.4 25.5 102.8 25.7 102.3 26.1C101.8 26.5 101.6 27.1 101.6 27.8H96.5C96.5 26.7 96.8 25.7 97.5 24.7C98.2 23.8 99.1 23 100.4 22.5C101.6 22 103 21.7 104.6 21.7C106.9 21.7 108.8 22.3 110.2 23.5C111.6 24.7 112.3 26.3 112.3 28.5V36.7C112.3 38.5 112.6 39.9 113.1 40.8V41H107.8V41ZM103.6 37.5C104.4 37.5 105 37.3 105.7 37C106.3 36.7 106.8 36.2 107.1 35.7V32.4H105.2C102.7 32.4 101.3 33.3 101.1 35V35.3C101.1 35.9 101.3 36.5 101.8 36.9C102.2 37.3 102.8 37.5 103.6 37.5V37.5ZM126.8 26.7C126.1 26.6 125.5 26.6 125 26.6C123.1 26.6 121.8 27.2 121.2 28.6V41H116.1V22H120.9L121 24.3C122 22.6 123.4 21.7 125.2 21.7C125.8 21.7 126.3 21.8 126.8 21.9V26.7ZM139.7 41C139.5 40.5 139.3 40 139.2 39.3C138 40.7 136.4 41.4 134.4 41.4C132.5 41.4 131 40.9 129.8 39.8C128.6 38.7 128 37.4 128 35.7C128 33.7 128.7 32.1 130.2 31.1C131.7 30 133.9 29.5 136.7 29.5H139V28.4C139 27.5 138.8 26.8 138.3 26.3C137.9 25.8 137.1 25.5 136.2 25.5C135.3 25.5 134.7 25.7 134.2 26.1C133.7 26.5 133.5 27.1 133.5 27.8H128.4C128.4 26.7 128.7 25.7 129.4 24.7C130.1 23.8 131 23 132.3 22.5C133.5 22 134.9 21.7 136.5 21.7C138.8 21.7 140.7 22.3 142.1 23.5C143.5 24.7 144.2 26.3 144.2 28.5V36.7C144.2 38.5 144.5 39.9 145 40.8V41H139.7V41ZM135.5 37.5C136.3 37.5 136.9 37.3 137.6 37C138.2 36.7 138.7 36.2 139 35.7V32.4H137.1C134.6 32.4 133.2 33.3 133 35V35.3C133 35.9 133.2 36.5 133.7 36.9C134.1 37.3 134.7 37.5 135.5 37.5V37.5ZM154.8 34.8L158.3 22H163.6L157.2 41H152.3L146 22H151.3L154.8 34.8ZM174.4 41.4C171.6 41.4 169.3 40.5 167.6 38.8C165.8 37.1 165 34.8 165 32V31.5C165 29.6 165.4 27.9 166.1 26.4C166.8 24.9 167.9 23.7 169.2 22.9C170.6 22.1 172.1 21.7 173.8 21.7C176.4 21.7 178.4 22.5 179.9 24.2C181.4 25.8 182.1 28.2 182.1 31.2V33.3H170C170.2 34.5 170.7 35.5 171.5 36.3C172.3 37.1 173.4 37.4 174.6 37.4C176.6 37.4 178.1 36.7 179.2 35.3L181.7 38.1C180.9 39.2 179.9 40 178.6 40.6C177.5 41.1 176 41.4 174.4 41.4V41.4ZM173.9 25.7C172.9 25.7 172.1 26 171.4 26.7C170.7 27.4 170.4 28.4 170.2 29.6H177.3V29.2C177.3 28.1 177 27.2 176.4 26.6C175.8 26 174.9 25.7 173.9 25.7ZM190.5 41H185.4V14H190.5V41ZM220 41H202.9V39.7L217.3 18H203.5V16.4H219.6V17.7L205.1 39.5H220V41ZM231.2 41.4C228.5 41.4 226.5 40.6 225 38.9C223.5 37.3 222.8 35 222.8 32C222.8 29.1 223.5 26.7 225 25C226.4 23.2 228.4 22.4 230.8 22.4C233 22.4 234.7 23.2 235.9 24.7C237.1 26.2 237.8 28.3 237.8 30.8V32.1H224.6C224.6 34.6 225.2 36.5 226.4 37.9C227.6 39.2 229.2 39.9 231.4 39.9C232.4 39.9 233.4 39.8 234.2 39.7C235 39.6 236 39.2 237.2 38.8V40.3C236.2 40.7 235.2 41.1 234.3 41.2C233.2 41.3 232.3 41.4 231.2 41.4V41.4ZM230.7 23.8C228.9 23.8 227.5 24.4 226.4 25.5C225.3 26.7 224.7 28.3 224.5 30.5H235.8C235.8 28.4 235.3 26.7 234.4 25.5C233.6 24.4 232.4 23.8 230.7 23.8ZM249.3 22.3C250.1 22.3 250.9 22.4 251.8 22.5L251.5 24.1C250.7 23.9 249.9 23.8 249.1 23.8C247.5 23.8 246.3 24.5 245.3 25.8C244.3 27.1 243.8 28.8 243.8 30.8V41H242.1V22.7H243.5L243.7 26H243.8C244.6 24.7 245.4 23.7 246.2 23.2C247.1 22.6 248.1 22.3 249.3 22.3V22.3ZM270 31.8C270 34.8 269.3 37.1 267.8 38.8C266.4 40.5 264.3 41.3 261.8 41.3C260.2 41.3 258.8 40.9 257.5 40.1C256.3 39.3 255.3 38.2 254.7 36.8C254 35.4 253.7 33.7 253.7 31.8C253.7 28.8 254.4 26.5 255.9 24.8C257.4 23.1 259.3 22.3 261.9 22.3C264.4 22.3 266.4 23.1 267.8 24.8C269.3 26.6 270 28.9 270 31.8V31.8ZM255.5 31.8C255.5 34.3 256.1 36.3 257.2 37.7C258.3 39.1 259.9 39.8 261.9 39.8C263.9 39.8 265.5 39.1 266.6 37.7C267.7 36.3 268.3 34.3 268.3 31.8C268.3 29.3 267.7 27.3 266.6 25.9C265.5 24.5 263.9 23.8 261.9 23.8C259.9 23.8 258.3 24.5 257.2 25.9C256.1 27.3 255.5 29.3 255.5 31.8V31.8Z" fill="white"/>
<path d="M48 13.4L56 5.4V4C56 1.8 54.2 0 52 0H4C1.8 0 0 1.8 0 4V42.6L8 34.6V8H42.6L16 34.6L8 42.6L0 50.6V52C0 54.2 1.8 56 4 56H52C54.2 56 56 54.2 56 52V13.4L48 21.4V48H13.4L33.3 28.1L48 13.4V13.4Z" fill="url(#paint0_linear)"/>
<defs>
<linearGradient id="paint0_linear" x1="28" y1="0" x2="28" y2="56" gradientUnits="userSpaceOnUse">
<stop stop-color="#68BF66"/>
<stop offset="1" stop-color="#42B257"/>
</linearGradient>
</defs>
</svg>
